!!!OTL: Der Spaziergang um Mitternacht (56), S. 179
!!!id: T0201
**kern
*clefG2
*k[f#]
*G:
{8d
8g
=1
4.g
16d
16b
8b
8a
=2
2g}
4r
=3
{8.g
16f#
8e
8d
8c
8e
=4
4e
4d}
4r
=5
{8.a
16g
8f#
8e
8d
8c
=6
8B
8d
4g}
4r
=7
{8.b
16g
8.b
16a
8g
8cc
=8
4cc
4g}
4r
=9
{8.dd
16b
8.ee
16b
8ee
8a
=10
4a
4g}
==
*-
!!!minrhy: 16
!!!meters: 3/4 ]  ZZ[5
!!!cut: Der Spaziergang um Mitternacht (56), S. 179
!!!reg: Luxemburg
!!!trd: Singendes Volk, Esch-Alzette 1937 posth.
!!!rhy1: X_X_  X__.XXX_X_  X___0__
!!!rhy2: X_.XX_X_X_X_  X__X__0__
!!!key: T0201  16  G 3/4 ]  ZZ[5
!!!mod: HEPTATONIK IONISCH]  AMBITUS[11
!!!kad: 1-5111
!!!akz: 11_1-6_2-3_34_52_
!!!fot: 'a__b__c__d__e__
!!!for: 'a__b__c__d__dv_
!!!fok: '^a_\__Vd_\__Sd_
!! PHRAS[VORWIEGEND VOLLTAKTIG]
!!!fkt: Liebeslieder
!!!bem: Modulation?, Strassen, fff Witry,10.2.1933
!! THILL, Mathias:
!! PR[26] 2K[0] 2G[0] 3K[9] 3G[0] 4A[6] 4Ü[0] 5A[0] 6K[0] 6G[4]
!! 7K[2] 7G[0] 8A[0] MEHR[0] SI[21] ABS[47] SR[0] SP[21]
!! ST[10] 2k[17] 2g[26] 3k[4] 3g[4] 4d[2] 4ü[0] 5d[0] 6k[0] 6g[0]
!! 7k[0] 7g[0] 8d[0] mehr[0] si[53] dm[-32] sr[43] sp[11]
!! 1F[4] 2F[58] 3F[31] 4F[2] LF[0] 2P[0] 3P[5] 4P[0] TRI[0] DF[5] AB[55]
!! TF[0] U3K[0] U3[0] U4[0] U4Ü[0] U5[0] U6K[0] U6[0] U7K[0] U7[2]
!! N1[2] N2K[0] N2[4] N3K[0] N3[8] N4[17] N4Ü[2] N5[19] N6K[0] N6[6]
!!!n7k: 0] N7[8] O1[17] O2K[0] O2[13] O3K[0] O3[2] HÖ[0
